packages/assets/static/images/icons/binoculars.svg

<svg width="24" height="24" viewBox="0 0 24 24" xmlns="http://www.w3.org/2000/svg">
<path d="M22.2374 14.2387C22.1748 14.0639 22.1012 13.8932 22.0171 13.7277L18.1181 4.85711C18.0812 4.77167 18.0284 4.69404 17.9624 4.62836C17.6839 4.34971 17.3531 4.12867 16.9891 3.97786C16.6251 3.82705 16.2349 3.74943 15.8409 3.74943C15.4469 3.74943 15.0567 3.82705 14.6927 3.97786C14.3286 4.12867 13.9979 4.34971 13.7193 4.62836C13.5792 4.76867 13.5003 4.95878 13.4999 5.15711V7.50086H10.4999V5.15711C10.5 5.05859 10.4807 4.96101 10.443 4.86997C10.4054 4.77892 10.3502 4.69618 10.2806 4.62648C10.002 4.34783 9.67123 4.12679 9.30721 3.97599C8.94319 3.82518 8.55303 3.74756 8.159 3.74756C7.76498 3.74756 7.37481 3.82518 7.01079 3.97599C6.64677 4.12679 6.31602 4.34783 6.03744 4.62648C5.97152 4.69216 5.9187 4.76979 5.88181 4.85523L1.98275 13.7259C1.89865 13.8914 1.82506 14.062 1.76244 14.2368C1.54166 14.8545 1.45861 15.5131 1.51912 16.1663C1.57963 16.8195 1.78223 17.4516 2.11273 18.0183C2.44323 18.585 2.89363 19.0726 3.43239 19.4469C3.97115 19.8212 4.58523 20.0732 5.23161 20.1852C5.878 20.2972 6.54106 20.2665 7.17435 20.0953C7.80763 19.9241 8.39583 19.6165 8.89772 19.194C9.39962 18.7716 9.80309 18.2445 10.0799 17.6498C10.3566 17.055 10.5 16.4069 10.4999 15.7509V9.00085H13.4999V15.7509C13.4996 16.407 13.6427 17.0552 13.9193 17.6501C14.1959 18.2451 14.5993 18.7724 15.1011 19.195C15.6029 19.6177 16.1911 19.9255 16.8244 20.0969C17.4577 20.2683 18.1209 20.2991 18.7673 20.1872C19.4138 20.0753 20.028 19.8234 20.5669 19.4492C21.1058 19.0749 21.5563 18.5873 21.8869 18.0206C22.2175 17.4539 22.4202 16.8217 22.4807 16.1684C22.5413 15.5151 22.4582 14.8565 22.2374 14.2387ZM7.1915 5.60242C7.44155 5.39188 7.75353 5.26878 8.07998 5.25186C8.40642 5.23493 8.72946 5.32511 8.99994 5.50867V12.4002C8.41438 11.8744 7.70092 11.5118 6.93104 11.3485C6.16117 11.1853 5.36192 11.2273 4.61338 11.4702L7.1915 5.60242ZM5.99994 18.7509C5.4066 18.7509 4.82658 18.5749 4.33323 18.2453C3.83988 17.9156 3.45536 17.4471 3.2283 16.8989C3.00124 16.3507 2.94183 15.7475 3.05758 15.1656C3.17334 14.5836 3.45906 14.0491 3.87862 13.6295C4.29818 13.21 4.83273 12.9243 5.41467 12.8085C5.99661 12.6927 6.59981 12.7522 7.14799 12.9792C7.69617 13.2063 8.1647 13.5908 8.49435 14.0841C8.82399 14.5775 8.99994 15.1575 8.99994 15.7509C8.99994 16.5465 8.68387 17.3096 8.12126 17.8722C7.55865 18.4348 6.79559 18.7509 5.99994 18.7509ZM14.9999 5.50773C15.2704 5.32417 15.5935 5.234 15.9199 5.25092C16.2463 5.26784 16.5583 5.39094 16.8084 5.60148L19.3865 11.4684C18.6379 11.2255 17.8386 11.1837 17.0687 11.3471C16.2988 11.5105 15.5854 11.8733 14.9999 12.3993V5.50773ZM17.9999 18.7509C17.4066 18.7509 16.8266 18.5749 16.3332 18.2453C15.8399 17.9156 15.4554 17.4471 15.2283 16.8989C15.0012 16.3507 14.9418 15.7475 15.0576 15.1656C15.1733 14.5836 15.4591 14.0491 15.8786 13.6295C16.2982 13.21 16.8327 12.9243 17.4147 12.8085C17.9966 12.6927 18.5998 12.7522 19.148 12.9792C19.6962 13.2063 20.1647 13.5908 20.4943 14.0841C20.824 14.5775 20.9999 15.1575 20.9999 15.7509C20.9999 16.5465 20.6839 17.3096 20.1213 17.8722C19.5586 18.4348 18.7956 18.7509 17.9999 18.7509Z"/>
</svg>

<svg viewBox="0 0 24 24" xmlns="http://www.w3.org/2000/svg" aria-hidden="true" fill="currentColor"><path d="M22.237 14.239a4 4 0 0 0-.22-.511l-3.899-8.87a.7.7 0 0 0-.156-.23 3 3 0 0 0-4.243 0 .75.75 0 0 0-.22.53V7.5h-3V5.157a.75.75 0 0 0-.218-.53 3 3 0 0 0-4.244 0 .7.7 0 0 0-.155.228l-3.9 8.87A4.5 4.5 0 1 0 10.5 15.75V9h3v6.75a4.5 4.5 0 1 0 8.738-1.511M7.192 5.602A1.5 1.5 0 0 1 9 5.51v6.89a4.49 4.49 0 0 0-4.387-.93zM6 18.751a3 3 0 1 1 0-6 3 3 0 0 1 0 6m9-13.243a1.5 1.5 0 0 1 1.808.093l2.579 5.867A4.49 4.49 0 0 0 15 12.4zm3 13.243a3 3 0 1 1 0-6.001 3 3 0 0 1 0 6"/></svg>
